icon-themes/sifr_svg/cmd/sc_setminimalcolumnwidth.svg

<svg viewBox="0 0 16 16" xmlns="http://www.w3.org/2000/svg"><path d="m12 0h-8v16h8zm-2 2v3h-4v-3zm0 4v4h-4v-4zm0 5v3h-4v-3z" fill="#555753"/></svg>

<svg xmlns="http://www.w3.org/2000/svg" viewBox="0 0 16 16">
  <path
   style="fill:#555753"
   d="M 12,0 H 4 v 16 h 8 z M 10,2 V 5 H 6 V 2 Z m 0,4 v 4 H 6 V 6 Z m 0,5 v 3 H 6 v -3 z"
   />
</svg>
